packages/ui-icons/src/Basic/16/Water-tap_16.svg

<svg xmlns="http://www.w3.org/2000/svg" viewBox="0 0 20 20"><path d="M11 5H9V3h2V2H6v1h2v2H4v4h7a1 1 0 0 1 1 1v2h4v-2a5 5 0 0 0-5-5Zm4 6h-2v-1a2 2 0 0 0-2-2H5V6h6a4 4 0 0 1 4 4Zm-1 2-1.41 1.46a2.16 2.16 0 0 0 0 2.93 1.95 1.95 0 0 0 2.82 0 2.08 2.08 0 0 0 0-2.93Zm.72 3.67a1 1 0 0 1-1.44 0 1.18 1.18 0 0 1 0-1.49l.72-.74.72.74a1.08 1.08 0 0 1-.02 1.49Z"/></svg>

<svg id="ready" xmlns="http://www.w3.org/2000/svg" viewBox="0 0 20 20"><title>Megaicons_work_16_1.8_cp</title><path d="M11,5H9V3h2V2H6V3H8V5H4V9h7a1,1,0,0,1,1,1v2h4V10A5,5,0,0,0,11,5Zm4,6H13V10a2,2,0,0,0-2-2H5V6h6a4,4,0,0,1,4,4Zm-1,2-1.41,1.46a2.16,2.16,0,0,0,0,2.93,1.95,1.95,0,0,0,2.82,0,2.08,2.08,0,0,0,0-2.93Zm.72,3.67a1,1,0,0,1-1.44,0,1.18,1.18,0,0,1,0-1.49l.72-.74.72.74A1.08,1.08,0,0,1,14.7,16.67Z"/></svg>
